!!!OTL: No_120_Cowaks,_Come_and_Help_Us_Sing.krn
!!!REG: Southwest
!!!LANG: Non-Tone
!!!LING_GROUP: Uto-Aztecan
!!!SOCIAL_FUNCTION: songs connected with ceremonies
**kern
*staff1
=1-
*clefF4
*k[b-e-a-]
*M3/4
2c\
8B-\L
8c\J
=2
8.B-\L
16B-\Jk
4B-\
4G\
=3||
*M2/4
8B-\L
8G\J
8G\L
16.F\L
32G\JJk
=4||
*M3/4
8E-/L
8C/J
4E-\
8C/
8r
=5||
*M2/4
8E-\L
8F\J
8F\L
16.F\L
32F\JJk
=6
8F\L
8F\J
8F\L
16F\L
16E-\JJ
=7
4F\
8E-/L
8C/J
=8
4F\
8E-\L
[8E-\J
=9
8E-\L]
8E-\J
8E-\L
8E-\J
=10
4E-\
8C/
8r
=11
8F\L
8E-\J
8E-/L
16.C/L
32C/JJk
=12
8.F\L
16F\Jk
4F\
=13
2r
=14
8.c\L
16B-\Jk
8.c\L
16B-\Jk
=15
4.c\
8B-\
=16
8G\L
[8F\J
4F\]
=17
8E-/L
8C/J
4E-\
=18||
*M3/4
8.C/L
16C/Jk
2C/
=19||
*M2/4
4E-\
8.F\L
16F\Jk
=20
4F\
8.E-/L
16C/Jk
=21
4F\
8F\L
8F\J
=22||
*M3/4
8F\L
8F\J
8E-/L
[8C/J
4C/]
=23
8.E-\L
16E-\Jk
2E-\
==
*-
